X:1
T: Brodag Ain McOmish
C:
R:Reel
Q: 232
K:A
M:4/4
L:1/8
|:d|cA ((3cde) c2 Ac|B=G dG B2 GB|cA ((3cde) c2 Ac|B=G dB A2 Ad|
cA ((3cde) c2 Ac|B=G dG B2 GB|cA ((3cde) c2 Ac|B=G dB A2 Ag|
ae ec a2 ef|=gd dB g2 d^g|ae ec a2 ed|cA B^G A2 Ag|
ae ec a2 ef|=gd dB g2 d^g|ae ec a2 ed|cA B^G A2 A:|
